logos/aics-image-io.svg

<?xml version="1.0" encoding="UTF-8"?>
<!DOCTYPE svg PUBLIC "-//W3C//DTD SVG 1.1//EN" "http://www.w3.org/Graphics/SVG/1.1/DTD/svg11.dtd">
<svg xmlns="http://www.w3.org/2000/svg" version="1.1" width="324px" height="76px" style="shape-rendering:geometricPrecision; text-rendering:geometricPrecision; image-rendering:optimizeQuality; fill-rule:evenodd; clip-rule:evenodd" xmlns:xlink="http://www.w3.org/1999/xlink">
<g><path style="opacity:1" fill="#0f1217" d="M -0.5,-0.5 C 107.5,-0.5 215.5,-0.5 323.5,-0.5C 323.5,24.8333 323.5,50.1667 323.5,75.5C 215.5,75.5 107.5,75.5 -0.5,75.5C -0.5,50.1667 -0.5,24.8333 -0.5,-0.5 Z"/></g>
<g><path style="opacity:1" fill="#dde3e8" d="M 94.5,35.5 C 92.7354,36.4614 90.7354,36.7947 88.5,36.5C 84.2744,29.3811 79.1077,28.7144 73,34.5C 70.8777,40.2867 71.2111,45.9533 74,51.5C 80.0952,55.0599 84.9285,53.8932 88.5,48C 90.4727,47.5045 92.4727,47.3379 94.5,47.5C 94.4436,53.1028 91.777,56.9362 86.5,59C 72.4434,61.9372 65.1101,56.2705 64.5,42C 65.0847,28.5297 72.0847,22.863 85.5,25C 90.5266,26.8534 93.5266,30.3534 94.5,35.5 Z"/></g>
<g><path style="opacity:1" fill="#dae0e5" d="M 106.5,24.5 C 114.045,22.8639 119.878,25.1973 124,31.5C 124.49,32.7932 124.657,34.1266 124.5,35.5C 122.167,35.5 119.833,35.5 117.5,35.5C 117.208,31.996 115.208,30.3293 111.5,30.5C 105.061,31.132 104.061,33.632 108.5,38C 114.48,38.3476 119.646,40.5142 124,44.5C 126.305,54.2289 122.305,59.5623 112,60.5C 103.914,60.894 99.4143,57.2274 98.5,49.5C 100.527,49.3379 102.527,49.5045 104.5,50C 109.197,55.8571 113.864,55.8571 118.5,50C 118.241,48.7387 117.574,47.7387 116.5,47C 112.044,46.0428 107.711,44.7095 103.5,43C 96.215,35.5422 97.215,29.3756 106.5,24.5 Z"/></g>
<g><path style="opacity:1" fill="#dde3e8" d="M 287.5,24.5 C 304.338,23.8081 311.171,31.8081 308,48.5C 307.036,52.4685 304.869,55.6351 301.5,58C 280.734,61.8931 272.901,53.3931 278,32.5C 280.362,28.7553 283.528,26.0886 287.5,24.5 Z"/></g>
<g><path style="opacity:1" fill="#dfe4e9" d="M 33.5,24.5 C 35.1172,25.038 36.7839,25.3713 38.5,25.5C 42.1667,36.8333 45.8333,48.1667 49.5,59.5C 47.076,59.8076 44.7427,59.4742 42.5,58.5C 41.5933,55.9433 40.5933,53.4433 39.5,51C 35.5138,50.5012 31.5138,50.3345 27.5,50.5C 26.8333,53.5 26.1667,56.5 25.5,59.5C 23.1667,59.5 20.8333,59.5 18.5,59.5C 21.488,48.7022 24.988,38.0355 29,27.5C 30.3103,26.1031 31.8103,25.1031 33.5,24.5 Z"/></g>
<g><path style="opacity:1" fill="#e6ecf1" d="M 52.5,25.5 C 54.5,25.5 56.5,25.5 58.5,25.5C 58.5,36.8333 58.5,48.1667 58.5,59.5C 56.5,59.5 54.5,59.5 52.5,59.5C 52.5,48.1667 52.5,36.8333 52.5,25.5 Z"/></g>
<g><path style="opacity:1" fill="#8b8f95" d="M 52.5,25.5 C 54.6074,24.5318 56.9407,24.1984 59.5,24.5C 59.8283,36.3453 59.4949,48.012 58.5,59.5C 58.5,48.1667 58.5,36.8333 58.5,25.5C 56.5,25.5 54.5,25.5 52.5,25.5 Z"/></g>
<g><path style="opacity:1" fill="#e6ecf1" d="M 129.5,25.5 C 131.5,25.5 133.5,25.5 135.5,25.5C 135.5,36.8333 135.5,48.1667 135.5,59.5C 133.5,59.5 131.5,59.5 129.5,59.5C 129.5,48.1667 129.5,36.8333 129.5,25.5 Z"/></g>
<g><path style="opacity:1" fill="#8b8f95" d="M 129.5,25.5 C 131.607,24.5318 133.941,24.1984 136.5,24.5C 136.828,36.3453 136.495,48.012 135.5,59.5C 135.5,48.1667 135.5,36.8333 135.5,25.5C 133.5,25.5 131.5,25.5 129.5,25.5 Z"/></g>
<g><path style="opacity:1" fill="#e6ecf1" d="M 264.5,25.5 C 266.5,25.5 268.5,25.5 270.5,25.5C 270.5,36.8333 270.5,48.1667 270.5,59.5C 268.5,59.5 266.5,59.5 264.5,59.5C 264.5,48.1667 264.5,36.8333 264.5,25.5 Z"/></g>
<g><path style="opacity:1" fill="#8b8f95" d="M 264.5,25.5 C 266.607,24.5318 268.941,24.1984 271.5,24.5C 271.828,36.3453 271.495,48.012 270.5,59.5C 270.5,48.1667 270.5,36.8333 270.5,25.5C 268.5,25.5 266.5,25.5 264.5,25.5 Z"/></g>
<g><path style="opacity:1" fill="#111418" d="M 289.5,30.5 C 300.197,31.1764 304.03,36.843 301,47.5C 300.315,50.0573 298.815,51.8906 296.5,53C 289.923,55.1304 285.756,52.9638 284,46.5C 282.016,39.6603 283.85,34.3269 289.5,30.5 Z"/></g>
<g><path style="opacity:1" fill="#dbe1e6" d="M 142.5,59.5 C 142.5,51.1667 142.5,42.8333 142.5,34.5C 144.821,34.2289 146.821,34.8955 148.5,36.5C 149.107,36.3764 149.44,36.0431 149.5,35.5C 152.177,33.568 155.177,33.068 158.5,34C 160.333,34.5 161.5,35.6667 162,37.5C 165.854,33.3294 170.354,32.4961 175.5,35C 176.701,35.9025 177.535,37.0692 178,38.5C 178.5,45.4921 178.666,52.4921 178.5,59.5C 176.167,59.5 173.833,59.5 171.5,59.5C 171.666,53.1579 171.5,46.8246 171,40.5C 168.408,39.0183 166.075,39.3517 164,41.5C 163.501,47.4908 163.334,53.4908 163.5,59.5C 161.167,59.5 158.833,59.5 156.5,59.5C 156.666,53.1579 156.5,46.8246 156,40.5C 153.408,39.0183 151.075,39.3517 149,41.5C 148.501,47.4908 148.334,53.4908 148.5,59.5C 146.5,59.5 144.5,59.5 142.5,59.5 Z"/></g>
<g><path style="opacity:1" fill="#dde3e8" d="M 188.5,41.5 C 186.219,41.9227 184.552,41.256 183.5,39.5C 184.254,36.909 185.921,35.0757 188.5,34C 194.645,32.412 199.811,33.912 204,38.5C 204.5,45.4921 204.666,52.4921 204.5,59.5C 201.606,59.9577 199.106,59.291 197,57.5C 193.405,59.4559 189.572,59.9559 185.5,59C 180.687,54.9586 180.354,50.6253 184.5,46C 188.7,44.6326 193.033,44.1326 197.5,44.5C 196.515,37.8335 193.515,36.8335 188.5,41.5 Z"/></g>
<g><path style="opacity:1" fill="#dae0e5" d="M 224.5,35.5 C 225.988,38.1864 226.655,37.8531 226.5,34.5C 228.5,34.5 230.5,34.5 232.5,34.5C 232.666,43.8393 232.5,53.1726 232,62.5C 225.267,69.6183 217.933,70.285 210,64.5C 207.532,61.7483 208.199,60.4149 212,60.5C 215.619,62.2069 219.453,62.7069 223.5,62C 225.325,60.5341 225.825,58.7008 225,56.5C 218.563,61.2054 213.23,60.2054 209,53.5C 206.18,46.5107 207.346,40.344 212.5,35C 216.682,32.8619 220.682,33.0286 224.5,35.5 Z"/></g>
<g><path style="opacity:1" fill="#dee4e9" d="M 244.5,33.5 C 255.695,32.364 261.029,37.364 260.5,48.5C 254.833,48.5 249.167,48.5 243.5,48.5C 244.123,53.2881 246.79,55.1214 251.5,54C 254.2,51.632 257.2,51.132 260.5,52.5C 259.363,55.4698 257.363,57.6365 254.5,59C 241.22,61.3867 235.387,55.8867 237,42.5C 238.268,38.4047 240.768,35.4047 244.5,33.5 Z"/></g>
<g><path style="opacity:1" fill="#1e2126" d="M 33.5,33.5 C 35.8061,37.0845 37.1394,41.0845 37.5,45.5C 34.7531,45.8134 32.0865,45.48 29.5,44.5C 30.842,40.8049 32.1753,37.1382 33.5,33.5 Z"/></g>
<g><path style="opacity:1" fill="#a3a8ad" d="M 149.5,35.5 C 149.44,36.0431 149.107,36.3764 148.5,36.5C 146.821,34.8955 144.821,34.2289 142.5,34.5C 142.5,42.8333 142.5,51.1667 142.5,59.5C 141.507,51.0161 141.174,42.3494 141.5,33.5C 144.533,33.1315 147.2,33.7982 149.5,35.5 Z"/></g>
<g><path style="opacity:1" fill="#81858b" d="M 232.5,34.5 C 230.5,34.5 228.5,34.5 226.5,34.5C 226.655,37.8531 225.988,38.1864 224.5,35.5C 227.003,33.3963 229.67,33.0629 232.5,34.5 Z"/></g>
<g><path style="opacity:1" fill="#7d8287" d="M 94.5,35.5 C 95.0431,35.56 95.3764,35.8933 95.5,36.5C 93.0268,37.7969 90.6934,37.7969 88.5,36.5C 90.7354,36.7947 92.7354,36.4614 94.5,35.5 Z"/></g>
<g><path style="opacity:1" fill="#13161a" d="M 217.5,39.5 C 224.809,39.6663 227.309,43.3329 225,50.5C 221.667,54.5 218.333,54.5 215,50.5C 213.812,46.2586 214.645,42.5919 217.5,39.5 Z"/></g>
<g><path style="opacity:1" fill="#1a1c21" d="M 253.5,42.5 C 252.207,43.1582 250.707,43.4915 249,43.5C 247.014,43.4313 245.514,42.7647 244.5,41.5C 246.527,38.1637 249.193,37.6637 252.5,40C 253.252,40.6708 253.586,41.5041 253.5,42.5 Z"/></g>
<g><path style="opacity:1" fill="#65696f" d="M 183.5,39.5 C 184.552,41.256 186.219,41.9227 188.5,41.5C 186.735,42.4614 184.735,42.7947 182.5,42.5C 182.263,41.209 182.596,40.209 183.5,39.5 Z"/></g>
<g><path style="opacity:1" fill="#8b8f95" d="M 244.5,41.5 C 245.514,42.7647 247.014,43.4313 249,43.5C 250.707,43.4915 252.207,43.1582 253.5,42.5C 254.043,42.56 254.376,42.8933 254.5,43.5C 250.893,44.4892 247.226,44.8226 243.5,44.5C 243.263,43.209 243.596,42.209 244.5,41.5 Z"/></g>
<g><path style="opacity:1" fill="#181a1f" d="M 190.5,48.5 C 192.833,48.5 195.167,48.5 197.5,48.5C 197.11,53.534 194.444,55.3673 189.5,54C 188.243,51.9235 188.576,50.0902 190.5,48.5 Z"/></g>
</svg>

<svg xmlns="http://www.w3.org/2000/svg" width="324" height="76" style="shape-rendering:geometricPrecision;text-rendering:geometricPrecision;image-rendering:optimizeQuality;fill-rule:evenodd;clip-rule:evenodd"><path style="opacity:1" fill="#0f1217" d="M-.5-.5h324v76H-.5v-76z"/><path style="opacity:1" fill="#dde3e8" d="M94.5 35.5c-1.765.961-3.765 1.295-6 1-4.226-7.119-9.392-7.786-15.5-2-2.122 5.787-1.789 11.453 1 17 6.095 3.56 10.928 2.393 14.5-3.5a18.436 18.436 0 0 1 6-.5c-.056 5.603-2.723 9.436-8 11.5-14.057 2.937-21.39-2.73-22-17 .585-13.47 7.585-19.137 21-17 5.027 1.853 8.027 5.353 9 10.5z"/><path style="opacity:1" fill="#dae0e5" d="M106.5 24.5c7.545-1.636 13.378.697 17.5 7a8.43 8.43 0 0 1 .5 4h-7c-.292-3.504-2.292-5.17-6-5-6.439.632-7.439 3.132-3 7.5 5.98.348 11.146 2.514 15.5 6.5 2.305 9.729-1.695 15.062-12 16-8.086.394-12.586-3.273-13.5-11a18.437 18.437 0 0 1 6 .5c4.697 5.857 9.364 5.857 14 0-.259-1.261-.926-2.261-2-3a78.1 78.1 0 0 1-13-4c-7.285-7.458-6.285-13.624 3-18.5z"/><path style="opacity:1" fill="#dde3e8" d="M287.5 24.5c16.838-.692 23.671 7.308 20.5 24-.964 3.968-3.131 7.135-6.5 9.5-20.766 3.893-28.599-4.607-23.5-25.5 2.362-3.745 5.528-6.411 9.5-8z"/><path style="opacity:1" fill="#dfe4e9" d="M33.5 24.5c1.617.538 3.284.871 5 1l11 34a13.117 13.117 0 0 1-7-1 101.029 101.029 0 0 0-3-7.5 72.444 72.444 0 0 0-12-.5l-2 9h-7a358.659 358.659 0 0 1 10.5-32c1.31-1.397 2.81-2.397 4.5-3z"/><path style="opacity:1" fill="#e6ecf1" d="M52.5 25.5h6v34h-6v-34z"/><path style="opacity:1" fill="#8b8f95" d="M52.5 25.5c2.107-.968 4.44-1.302 7-1 .328 11.845-.005 23.512-1 35v-34h-6z"/><path style="opacity:1" fill="#e6ecf1" d="M129.5 25.5h6v34h-6v-34z"/><path style="opacity:1" fill="#8b8f95" d="M129.5 25.5c2.107-.968 4.441-1.302 7-1 .328 11.845-.005 23.512-1 35v-34h-6z"/><path style="opacity:1" fill="#e6ecf1" d="M264.5 25.5h6v34h-6v-34z"/><path style="opacity:1" fill="#8b8f95" d="M264.5 25.5c2.107-.968 4.441-1.302 7-1 .328 11.845-.005 23.512-1 35v-34h-6z"/><path style="opacity:1" fill="#111418" d="M289.5 30.5c10.697.676 14.53 6.343 11.5 17-.685 2.557-2.185 4.39-4.5 5.5-6.577 2.13-10.744-.036-12.5-6.5-1.984-6.84-.15-12.173 5.5-16z"/><path style="opacity:1" fill="#dbe1e6" d="M142.5 59.5v-25c2.321-.271 4.321.395 6 2 .607-.124.94-.457 1-1 2.677-1.932 5.677-2.432 9-1.5 1.833.5 3 1.667 3.5 3.5 3.854-4.17 8.354-5.004 13.5-2.5a6.977 6.977 0 0 1 2.5 3.5c.5 6.992.666 13.992.5 21h-7c.166-6.342 0-12.675-.5-19-2.592-1.482-4.925-1.148-7 1-.499 5.99-.666 11.99-.5 18h-7c.166-6.342 0-12.675-.5-19-2.592-1.482-4.925-1.148-7 1-.499 5.99-.666 11.99-.5 18h-6z"/><path style="opacity:1" fill="#dde3e8" d="M188.5 41.5c-2.281.423-3.948-.244-5-2 .754-2.591 2.421-4.424 5-5.5 6.145-1.588 11.311-.088 15.5 4.5.5 6.992.666 13.992.5 21-2.894.458-5.394-.209-7.5-2-3.595 1.956-7.428 2.456-11.5 1.5-4.813-4.041-5.146-8.375-1-13 4.2-1.367 8.533-1.867 13-1.5-.985-6.666-3.985-7.666-9-3z"/><path style="opacity:1" fill="#dae0e5" d="M224.5 35.5c1.488 2.686 2.155 2.353 2-1h6c.166 9.34 0 18.673-.5 28-6.733 7.118-14.067 7.785-22 2-2.468-2.752-1.801-4.085 2-4 3.619 1.707 7.453 2.207 11.5 1.5 1.825-1.466 2.325-3.3 1.5-5.5-6.437 4.705-11.77 3.705-16-3-2.82-6.99-1.654-13.156 3.5-18.5 4.182-2.138 8.182-1.971 12 .5z"/><path style="opacity:1" fill="#dee4e9" d="M244.5 33.5c11.195-1.136 16.529 3.864 16 15h-17c.623 4.788 3.29 6.621 8 5.5 2.7-2.368 5.7-2.868 9-1.5-1.137 2.97-3.137 5.136-6 6.5-13.28 2.387-19.113-3.113-17.5-16.5 1.268-4.095 3.768-7.095 7.5-9z"/><path style="opacity:1" fill="#1e2126" d="M33.5 33.5c2.306 3.584 3.64 7.584 4 12a16.869 16.869 0 0 1-8-1c1.342-3.695 2.675-7.362 4-11z"/><path style="opacity:1" fill="#a3a8ad" d="M149.5 35.5c-.06.543-.393.876-1 1-1.679-1.605-3.679-2.271-6-2v25c-.993-8.484-1.326-17.15-1-26 3.033-.368 5.7.298 8 2z"/><path style="opacity:1" fill="#81858b" d="M232.5 34.5h-6c.155 3.353-.512 3.686-2 1 2.503-2.104 5.17-2.437 8-1z"/><path style="opacity:1" fill="#7d8287" d="M94.5 35.5c.543.06.876.393 1 1-2.473 1.297-4.807 1.297-7 0 2.235.295 4.235-.039 6-1z"/><path style="opacity:1" fill="#13161a" d="M217.5 39.5c7.309.166 9.809 3.833 7.5 11-3.333 4-6.667 4-10 0-1.188-4.241-.355-7.908 2.5-11z"/><path style="opacity:1" fill="#1a1c21" d="M253.5 42.5c-1.293.658-2.793.992-4.5 1-1.986-.069-3.486-.735-4.5-2 2.027-3.336 4.693-3.836 8-1.5.752.67 1.086 1.504 1 2.5z"/><path style="opacity:1" fill="#65696f" d="M183.5 39.5c1.052 1.756 2.719 2.423 5 2-1.765.961-3.765 1.295-6 1-.237-1.291.096-2.291 1-3z"/><path style="opacity:1" fill="#8b8f95" d="M244.5 41.5c1.014 1.265 2.514 1.931 4.5 2 1.707-.008 3.207-.342 4.5-1 .543.06.876.393 1 1a31.12 31.12 0 0 1-11 1c-.237-1.291.096-2.291 1-3z"/><path style="opacity:1" fill="#181a1f" d="M190.5 48.5h7c-.39 5.034-3.056 6.867-8 5.5-1.257-2.077-.924-3.91 1-5.5z"/></svg>
